projects/flag-game/flags/Russia.svg

<svg viewBox="0 0 1000 667" xmlns="http://www.w3.org/2000/svg" xmlns:xlink="http://www.w3.org/1999/xlink"><clipPath id="a"><path d="m0 333h1000v333.71875h-1000zm0 0"/></clipPath><path d="m0 0h1000v333.332031h-1000zm0 0" fill="#fff" fill-rule="evenodd"/><g clip-path="url(#a)"><path d="m0 333.332031h1000v333.335938h-1000zm0 0" fill="#d52b1e" fill-rule="evenodd"/></g><path d="m0 222.222656h1000v222.222656h-1000zm0 0" fill="#0039a6" fill-rule="evenodd"/></svg>

<?xml version="1.0" encoding="UTF-8"?>
<svg xmlns="http://www.w3.org/2000/svg" xmlns:xlink="http://www.w3.org/1999/xlink" viewBox="0 0 1000 667" version="1.1">
<defs>
<clipPath id="clip1">
  <path d="M 0 333 L 1000 333 L 1000 666.71875 L 0 666.71875 Z M 0 333 "/>
</clipPath>
</defs>
<g id="surface980">
<path style=" stroke:none;fill-rule:evenodd;fill:rgb(99.998474%,99.998474%,99.998474%);fill-opacity:1;" d="M 0 0 L 1000 0 L 1000 333.332031 L 0 333.332031 Z M 0 0 "/>
<g clip-path="url(#clip1)" clip-rule="nonzero">
<path style=" stroke:none;fill-rule:evenodd;fill:rgb(83.528137%,16.862488%,11.764526%);fill-opacity:1;" d="M 0 333.332031 L 1000 333.332031 L 1000 666.667969 L 0 666.667969 Z M 0 333.332031 "/>
</g>
<path style=" stroke:none;fill-rule:evenodd;fill:rgb(0%,22.3526%,65.097046%);fill-opacity:1;" d="M 0 222.222656 L 1000 222.222656 L 1000 444.445312 L 0 444.445312 Z M 0 222.222656 "/>
</g>
</svg>
